X:5676
T:Roundabout, The
O:england
S:Han Speek, Ir-Trad, 9/97
R:Polka
S:Brendan Begley, "We Won't Go Home Till Morning"
C:Dave Hennesy ()
L:1/8
M:2/4
K:D
|: DE FG | A2 FA | GB/2G/2 FE | D/2E/2F A,2 |
DE FG | A2 FA | GB/2G/2 FE |1 D2 -DA, :|2 D2 -D z
|: E2 FE | DF AF | G2 FE | DF A,2 |
E2 FE | DF AF | GB/2G/2 FE | D2 -D z :|
